cursor/src/grab.svg

<svg xmlns="http://www.w3.org/2000/svg" viewBox="0 0 32 32">
    <path d="M15 25.07H9.5c-3.311 0-6-2.689-6-6v-5.692c0-.683.56-1.238 1.25-1.238S6 12.695 6 13.378v4.129q.062.573.5.563.437-.01.5-.563V6.7c0-.662.538-1.2 1.2-1.2h.1c.662 0 1.2.538 1.2 1.2v5.37c0 .552.336 1 .75 1s.75-.448.75-1V5.7c0-.662.538-1.2 1.2-1.2h.1c.662 0 1.2.538 1.2 1.2v6.37c0 .552.336 1 .75 1s.75-.448.75-1V6.7c0-.662.538-1.2 1.2-1.2h.1c.662 0 1.2.538 1.2 1.2v5.37c0 .552.334 1 .746 1s.747-.448.747-1V8.578a1.001 1.001 0 0 1 2 0l.004 10.492a6 6 0 0 1-5.997 6" style="paint-order:stroke;stroke-width:2;stroke-linejoin:round;fill:none;stroke:#009;stroke-opacity:.2"/>
    <path fill="#fff" d="M14 24.07H8.5c-3.311 0-6-2.689-6-6v-5.692c0-.683.56-1.238 1.25-1.238S5 11.695 5 12.378v4.129q.062.573.5.563.437-.01.5-.563V5.7c0-.662.538-1.2 1.2-1.2h.1c.662 0 1.2.538 1.2 1.2v5.37c0 .552.336 1 .75 1s.75-.448.75-1V4.7c0-.662.538-1.2 1.2-1.2h.1c.662 0 1.2.538 1.2 1.2v6.37c0 .552.336 1 .75 1s.75-.448.75-1V5.7c0-.662.538-1.2 1.2-1.2h.1c.662 0 1.2.538 1.2 1.2v5.37c0 .552.334 1 .746 1s.747-.448.747-1V7.578a1 1 0 0 1 2 0l.004 10.492a6 6 0 0 1-5.997 6" style="stroke:#000;paint-order:stroke;stroke-width:2px;stroke-linejoin:round;stroke-opacity:.8"/>
    <circle id="hot" cx="7" cy="5" r="1" style="fill:red"/>
</svg>

<?xml version="1.0" encoding="utf-8"?>
<svg xmlns="http://www.w3.org/2000/svg" viewBox="0 0 32 32">
  <path d="M 15 25.07 L 9.5 25.07 C 6.189 25.07 3.5 22.381 3.5 19.07 L 3.5 13.378 C 3.5 12.695 4.06 12.14 4.75 12.14 C 5.44 12.14 6 12.695 6 13.378 L 6 17.507 C 6.041 17.889 6.208 18.077 6.5 18.07 C 6.791 18.063 6.958 17.876 7 17.507 L 7 6.7 C 7 6.038 7.538 5.5 8.2 5.5 L 8.3 5.5 C 8.962 5.5 9.5 6.038 9.5 6.7 L 9.5 12.07 C 9.5 12.622 9.836 13.07 10.25 13.07 C 10.664 13.07 11 12.622 11 12.07 L 11 5.7 C 11 5.038 11.538 4.5 12.2 4.5 L 12.3 4.5 C 12.962 4.5 13.5 5.038 13.5 5.7 L 13.5 12.07 C 13.5 12.622 13.836 13.07 14.25 13.07 C 14.664 13.07 15 12.622 15 12.07 L 15 6.7 C 15 6.038 15.538 5.5 16.2 5.5 L 16.3 5.5 C 16.962 5.5 17.5 6.038 17.5 6.7 L 17.5 12.07 C 17.5 12.622 17.834 13.07 18.246 13.07 C 18.658 13.07 18.993 12.622 18.993 12.07 L 18.993 8.578 C 19.027 7.808 19.882 7.365 20.532 7.779 C 20.806 7.955 20.978 8.253 20.993 8.578 L 20.997 19.07 C 20.997 22.383 18.313 25.069 15 25.07" style="paint-order: stroke; stroke-width: 2; stroke-linejoin: round; fill: none; stroke: rgb(0, 0, 153); stroke-opacity: 0.2;"/>
  <path fill="#fff" d="M 14 24.07 L 8.5 24.07 C 5.189 24.07 2.5 21.381 2.5 18.07 L 2.5 12.378 C 2.5 11.695 3.06 11.14 3.75 11.14 C 4.44 11.14 5 11.695 5 12.378 L 5 16.507 C 5.041 16.889 5.208 17.077 5.5 17.07 C 5.791 17.063 5.958 16.876 6 16.507 L 6 5.7 C 6 5.038 6.538 4.5 7.2 4.5 L 7.3 4.5 C 7.962 4.5 8.5 5.038 8.5 5.7 L 8.5 11.07 C 8.5 11.622 8.836 12.07 9.25 12.07 C 9.664 12.07 10 11.622 10 11.07 L 10 4.7 C 10 4.038 10.538 3.5 11.2 3.5 L 11.3 3.5 C 11.962 3.5 12.5 4.038 12.5 4.7 L 12.5 11.07 C 12.5 11.622 12.836 12.07 13.25 12.07 C 13.664 12.07 14 11.622 14 11.07 L 14 5.7 C 14 5.038 14.538 4.5 15.2 4.5 L 15.3 4.5 C 15.962 4.5 16.5 5.038 16.5 5.7 L 16.5 11.07 C 16.5 11.622 16.834 12.07 17.246 12.07 C 17.658 12.07 17.993 11.622 17.993 11.07 L 17.993 7.578 C 18.027 6.808 18.882 6.364 19.532 6.779 C 19.806 6.954 19.978 7.252 19.993 7.578 L 19.997 18.07 C 19.997 21.383 17.313 24.068 14 24.07" style="stroke: rgb(0, 0, 0); paint-order: stroke; stroke-width: 2px; stroke-linejoin: round; stroke-opacity: 0.8;"/>
  <circle id="hot" cx="7" cy="5" r="1" style="fill:red"/>
</svg>
